svg/voice_phone.svg

<svg width="73" height="69" viewBox="0 0 73 69" fill="none" xmlns="http://www.w3.org/2000/svg">
<path d="M20.0547 52.587L20.0908 52.5469" stroke="#55E6A5" stroke-width="3" stroke-linecap="round" stroke-linejoin="round"/>
<path d="M20.0556 9.21875H4.16667C2.97005 9.21875 2 10.1888 2 11.3854V64.8299C2 66.0266 2.97005 66.9965 4.16667 66.9965H35.9444C37.1412 66.9965 38.1111 66.0266 38.1111 64.8299V48.941" stroke="#55E6A5" stroke-width="3" stroke-linecap="round" stroke-linejoin="round"/>
<path d="M48.9453 2V38.1111" stroke="#55E6A5" stroke-width="3" stroke-linecap="round" stroke-linejoin="round"/>
<path d="M38.1113 9.21875V30.8854" stroke="#55E6A5" stroke-width="3" stroke-linecap="round" stroke-linejoin="round"/>
<path d="M70.6113 16.4453V23.6675" stroke="#55E6A5" stroke-width="3" stroke-linecap="round" stroke-linejoin="round"/>
<path d="M27.2773 16.4453V23.6675" stroke="#55E6A5" stroke-width="3" stroke-linecap="round" stroke-linejoin="round"/>
<path d="M59.7773 5.60938V34.4983" stroke="#55E6A5" stroke-width="3" stroke-linecap="round" stroke-linejoin="round"/>
</svg>

<svg xmlns="http://www.w3.org/2000/svg" width="73" height="69" fill="none"><path stroke="#55E6A5" stroke-linecap="round" stroke-linejoin="round" stroke-width="3" d="m20.055 52.587.036-.04M20.056 9.219H4.166C2.97 9.219 2 10.189 2 11.385V64.83c0 1.197.97 2.166 2.167 2.166h31.777c1.197 0 2.167-.97 2.167-2.166V48.94M48.945 2v36.111M38.111 9.219v21.666M70.611 16.445v7.223M27.277 16.445v7.223M59.777 5.61v28.888"/></svg>
